coreui/free/cil-drink.svg

<svg viewBox="0 0 512 512" xmlns="http://www.w3.org/2000/svg"><path d="M273.637 128l3.8 32h96.43l-8 64H252.55l-7.45-64h.08l-3.81-32v0l-.05-.39 -9.05-77.745 -2.08-17.866h-126.25v32h97.75l7.44 64h-91.319l40.5 323.969v0c2.02 16 15.62 28 31.74 28.03h147.75 0c16.12-.03 29.72-12.03 31.75-28.04l40.49-323.969Zm-119.513 32h58.792l7.44 64h-58.24Zm183.76 288h-147.77l-24-192h57.95l13.95 120h32.215l-13.96-120h105.58Z"/></svg>

<svg xmlns="http://www.w3.org/2000/svg" viewBox="0 0 512 512">
  <path fill="var(--ci-primary-color, currentColor)" d="M273.637,128l3.809,32h96.43l-8,64H252.573l-7.442-64h.089l-3.809-32h0l-.045-.389-9.041-77.745L230.247,32H104V64h97.753l7.442,64H117.876l40.5,323.969A32.051,32.051,0,0,0,190.125,480h147.75a32.051,32.051,0,0,0,31.753-28.031L410.124,128ZM154.124,160h58.792l7.442,64H162.124ZM337.889,448H190.124l-24-192h57.955l13.953,120h32.215L256.293,256H361.88Z" class="ci-primary"/>
</svg>
